X:4
T: Sangeslohn
N: Q0124C
O: Mitteleuropa, Deutschland
N: Tonangabe zur Ballade "Sangeslohn" - moegliche Melodie (??) .
R: geistlich
M: 3/2
L: 1/2
K: F
 | FFF | F2D | C2G | G2
G | B2B | AG2 | F3 |
BBB | B2A | G3 | G2
A | c2c | B2A | G2
G | B2B | AG2 | F3

@@@ Tune index: 1502
